Origami/32x32/apps/the-witcher-2.svg

<svg width="32" height="32" version="1.1" viewBox="0 0 32 32" xmlns="http://www.w3.org/2000/svg">
 <circle cx="16" cy="17" r="14" style="opacity:.2"/>
 <circle cx="16" cy="16" r="14" style="fill:#c44652"/>
 <path d="M 9,5.5000005 V 8.8144536 L 7.6484375,10.160157 C 5.8570659,11.208725 4.3632428,11.881133 3,13 L 6,14.5 1,17 7,18 2,24 8,22.185547 V 24 L 10.5,23 10,25 14.572266,22.888672 16,23 17.427734,22.888672 22,25 21.5,23 24,24 V 22.185547 L 30,24 25,18 31,17 26,14.5 29,13 C 27.636757,11.881133 26.142935,11.208725 24.351562,10.160157 L 23,8.8144536 V 5.5000005 L 20,7.007813 V 6.0000005 L 19,7.007813 V 6.0000005 L 16,7.007813 13,6.0000005 V 7.007813 L 12,6.0000005 V 7.007813 Z" style="opacity:.2"/>
 <path d="M 16 2 A 14 14 0 0 0 2 16 A 14 14 0 0 0 2.0214844 16.585938 A 14 14 0 0 1 16 3 A 14 14 0 0 1 29.978516 16.414062 A 14 14 0 0 0 30 16 A 14 14 0 0 0 16 2 z" style="fill:#ffffff;opacity:.2"/>
 <path d="m9 4.5v3.3144531l-1.3515625 1.3457031c-1.7913716 1.0485688-3.2851947 1.7209768-4.6484375 2.8398438l3 1.5-5 2.5 6 1-5 6 6-1.814453v1.814453l2.5-1-0.5 2 4.572266-2.111328 1.427734 0.111328 1.427734-0.111328 4.572266 2.111328-0.5-2 2.5 1v-1.814453l6 1.814453-5-6 6-1-5-2.5 3-1.5c-1.363243-1.118867-2.857065-1.791275-4.648438-2.8398438l-1.351562-1.3457031v-3.3144531l-3 1.5078125v-1.0078125l-1 1.0078125v-1.0078125l-3 1.0078125-3-1.0078125v1.0078125l-1-1.0078125v1.0078125l-3-1.5078125z" style="fill:#393939"/>
 <path d="m6 4.0000003-0.9963487 1.1488937c-0.050873 1.7449661 0.4369209 3.2950739 1.0227165 4.8109921 1.0185637 2.5260949 3.7708307 3.4642539 5.4315692 5.0177929 1.053648 1.009479 1.337479 1.899606 1.488239 2.788937 0.174636 1.030177 0.280005 2.147016 0.389606 3.866028 0.366497 2.237008 0.566207 5.881964 0.840804 7.097289 0.25156 0.282024 1.823414 0.269992 1.823414 0.269992s1.571854 0.01204 1.823415-0.269992c0.274596-1.215325 0.474307-4.860281 0.840803-7.097289 0.109601-1.719012 0.214971-2.835851 0.389606-3.866028 0.150761-0.889331 0.434591-1.779458 1.488239-2.788937 1.660738-1.553539 4.413005-2.491698 5.431569-5.0177929 0.585796-1.5159182 1.073591-3.066026 1.022717-4.8109921l-0.996349-1.1488937v1.1460215l-4.495381 2.8934722-5.504619-0.078987-5.504619 0.078987-4.495381-2.8934722z" style="opacity:.2"/>
 <path d="m6 2.9999998-0.9963487 1.1488937c-0.050873 1.7449661 0.4369209 3.2950739 1.0227165 4.8109921 1.0185637 2.5260954 3.7708307 3.4642544 5.4315692 5.0177934 1.053648 1.009479 1.337479 1.899606 1.488239 2.788937 0.174636 1.030177 0.280005 2.147016 0.389606 3.866028 0.366497 2.237008 0.566207 5.881964 0.840804 7.097289 0.25156 0.282024 1.823414 0.269992 1.823414 0.269992s1.571854 0.01204 1.823415-0.269992c0.274596-1.215325 0.474307-4.860281 0.840803-7.097289 0.109601-1.719012 0.214971-2.835851 0.389606-3.866028 0.150761-0.889331 0.434591-1.779458 1.488239-2.788937 1.660738-1.553539 4.413005-2.491698 5.431569-5.0177934 0.585796-1.5159182 1.073591-3.066026 1.022717-4.8109921l-0.996349-1.1488937v1.1460215l-4.495381 2.8934722-5.504619-0.078987-5.504619 0.078987-4.495381-2.8934722z" style="fill:#505050"/>
 <path d="M 10.178608,9.903637 A 2.2239115,2.2239115 0 0 0 10,10.776089 2.2239115,2.2239115 0 0 0 12.223911,13 2.2239115,2.2239115 0 0 0 14,12.109913 Z" style="opacity:.2"/>
 <path d="M 10.178608,8.903637 A 2.2239115,2.2239115 0 0 0 10,9.776089 2.2239115,2.2239115 0 0 0 12.223911,12 2.2239115,2.2239115 0 0 0 14,11.109913 Z" style="fill:#eb6b00"/>
 <path d="m18.1 18c-0.729019 0.278391-1.351113 0.720858-2.1 0.66534v0.01429c-0.748887 0.05552-1.370981-0.386948-2.1-0.66534l0.717774 7.257661c0.05469 0.542956 0.06698 0.615506 0.54414 0.66534 0.311811 0.04979 0.551199 0.0687 0.838086 0.06108v-0.01429c0.286887 0.0076 0.526275-0.01128 0.838086-0.06108 0.47716-0.04983 0.48945-0.121085 0.54414-0.664041z" style="opacity:.4"/>
 <path d="m15 24.322718c-0.303864 0.238001-0.269335 0.551372-0.486133 0.899248l0.103907 1.049989c0.05469 0.542956 0.06698 0.615506 0.54414 0.66534 0.101118 0.01615 0.187564 0.02398 0.277539 0.03379h1.002148c0.125284-0.01024 0.252039-0.02502 0.396485-0.04809 0.47716-0.04983 0.48945-0.121085 0.54414-0.664041l0.10254-1.038294c-0.216628-0.347263-0.181342-0.660285-0.484766-0.897942v1.677282h-2z" style="opacity:.2"/>
 <path d="m15 23.322718c-0.303864 0.238001-0.269335 0.551372-0.486133 0.899248l0.103907 1.049989c0.05469 0.542956 0.06698 0.615506 0.54414 0.66534 0.101118 0.01615 0.187564 0.02398 0.277539 0.03379h1.002148c0.125284-0.01024 0.252039-0.02502 0.396485-0.04809 0.47716-0.04983 0.48945-0.121085 0.54414-0.664041l0.10254-1.038294c-0.216628-0.347263-0.181342-0.660285-0.484766-0.897942v1.677282h-2z" style="fill:#ffffff"/>
 <path d="m18.1 19c-0.729019 0.278391-1.351113 0.720858-2.1 0.66534v0.01429c-0.747891 0.05544-1.3695-0.385584-2.097266-0.66404 0.08121 0.935021 0.312966 2.045759 1.097266 2.660059v-1.675649h2v1.675649c0.78859-0.617657 1.023326-1.737462 1.1-2.675649z" style="opacity:.2"/>
 <path d="m18.1 18c-0.729019 0.278391-1.351113 0.720858-2.1 0.66534v0.01429c-0.747891 0.05544-1.3695-0.385584-2.097266-0.66404 0.08121 0.935021 0.312966 2.045759 1.097266 2.660059v-1.675649h2v1.675649c0.78859-0.617657 1.023326-1.737462 1.1-2.675649z" style="fill:#ffffff"/>
 <path d="M 21.821392,9.903637 A 2.2239115,2.2239115 0 0 1 22,10.776089 2.2239115,2.2239115 0 0 1 19.776089,13 2.2239115,2.2239115 0 0 1 18,12.109913 Z" style="opacity:.2"/>
 <path d="M 21.821392,8.903637 A 2.2239115,2.2239115 0 0 1 22,9.776089 2.2239115,2.2239115 0 0 1 19.776089,12 2.2239115,2.2239115 0 0 1 18,11.109913 Z" style="fill:#eb6b00"/>
 <path d="m6 3l-0.9960938 1.1484375c-0.0094854 0.325355 0.0178573 0.6383239 0.0429688 0.9511719l0.953125-1.0996094v-1zm20 0v1l0.953125 1.0996094c0.025111-0.312848 0.052454-0.6258169 0.042969-0.9511719l-0.996094-1.1484375zm-20 1.1464844v1l4.496094 2.8925781 5.503906-0.078125 5.503906 0.078125 4.496094-2.8925781v-1l-4.496094 2.8925781-5.503906-0.078125-5.503906 0.078125-4.496094-2.8925781z" style="fill:#ffffff;opacity:.1"/>
 <path d="M 10.177734,8.9042969 A 2.2239115,2.2239115 0 0 0 10,9.775391 a 2.2239115,2.2239115 0 0 0 0.05859,0.498047 2.2239115,2.2239115 0 0 1 0.11914,-0.369141 L 13.3125,11.712891 A 2.2239115,2.2239115 0 0 0 14,11.109375 Z" style="fill:#ffffff;opacity:.1"/>
 <path d="M 21.822266,8.9042969 18,11.109375 a 2.2239115,2.2239115 0 0 0 0.6875,0.603516 l 3.134766,-1.808594 a 2.2239115,2.2239115 0 0 1 0.11914,0.369141 A 2.2239115,2.2239115 0 0 0 22,9.775391 2.2239115,2.2239115 0 0 0 21.822266,8.9042969 Z" style="fill:#ffffff;opacity:.1"/>
</svg>

<svg xmlns="http://www.w3.org/2000/svg" width="32" height="32" version="1.1" viewBox="0 0 32 32">
 <circle cx="16" cy="17" r="14" style="opacity:0.2"/>
 <circle style="fill:#c44652" cx="16" cy="16" r="14"/>
 <path d="M 9,5.5000005 V 8.8144536 L 7.6484375,10.160157 C 5.8570659,11.208725 4.3632428,11.881133 3,13 L 6,14.5 1,17 7,18 2,24 8,22.185547 V 24 L 10.5,23 10,25 14.572266,22.888672 16,23 17.427734,22.888672 22,25 21.5,23 24,24 V 22.185547 L 30,24 25,18 31,17 26,14.5 29,13 C 27.636757,11.881133 26.142935,11.208725 24.351562,10.160157 L 23,8.8144536 V 5.5000005 L 20,7.007813 V 6.0000005 L 19,7.007813 V 6.0000005 L 16,7.007813 13,6.0000005 V 7.007813 L 12,6.0000005 V 7.007813 Z" style="opacity:0.2"/>
 <path style="fill:#ffffff;opacity:0.2" d="M 16 2 A 14 14 0 0 0 2 16 A 14 14 0 0 0 2.0214844 16.585938 A 14 14 0 0 1 16 3 A 14 14 0 0 1 29.978516 16.414062 A 14 14 0 0 0 30 16 A 14 14 0 0 0 16 2 z"/>
 <path style="fill:#393939" d="M 9 4.5 L 9 7.8144531 L 7.6484375 9.1601562 C 5.8570659 10.208725 4.3632428 10.881133 3 12 L 6 13.5 L 1 16 L 7 17 L 2 23 L 8 21.185547 L 8 23 L 10.5 22 L 10 24 L 14.572266 21.888672 L 16 22 L 17.427734 21.888672 L 22 24 L 21.5 22 L 24 23 L 24 21.185547 L 30 23 L 25 17 L 31 16 L 26 13.5 L 29 12 C 27.636757 10.881133 26.142935 10.208725 24.351562 9.1601562 L 23 7.8144531 L 23 4.5 L 20 6.0078125 L 20 5 L 19 6.0078125 L 19 5 L 16 6.0078125 L 13 5 L 13 6.0078125 L 12 5 L 12 6.0078125 L 9 4.5 z"/>
 <path d="M 6,4.0000003 5.0036513,5.148894 c -0.050873,1.7449661 0.4369209,3.2950739 1.0227165,4.8109921 1.0185637,2.5260949 3.7708307,3.4642539 5.4315692,5.0177929 1.053648,1.009479 1.337479,1.899606 1.488239,2.788937 0.174636,1.030177 0.280005,2.147016 0.389606,3.866028 0.366497,2.237008 0.566207,5.881964 0.840804,7.097289 C 14.428146,29.011957 16,28.999925 16,28.999925 c 0,0 1.571854,0.01204 1.823415,-0.269992 0.274596,-1.215325 0.474307,-4.860281 0.840803,-7.097289 0.109601,-1.719012 0.214971,-2.835851 0.389606,-3.866028 0.150761,-0.889331 0.434591,-1.779458 1.488239,-2.788937 1.660738,-1.553539 4.413005,-2.491698 5.431569,-5.0177929 0.585796,-1.5159182 1.073591,-3.066026 1.022717,-4.8109921 L 26,4.0000003 V 5.1460218 L 21.504619,8.039494 16,7.960507 10.495381,8.039494 6,5.1460218 Z" style="opacity:0.2"/>
 <path style="fill:#505050" d="M 6,2.9999998 5.0036513,4.1488935 c -0.050873,1.7449661 0.4369209,3.2950739 1.0227165,4.8109921 1.0185637,2.5260954 3.7708307,3.4642544 5.4315692,5.0177934 1.053648,1.009479 1.337479,1.899606 1.488239,2.788937 0.174636,1.030177 0.280005,2.147016 0.389606,3.866028 0.366497,2.237008 0.566207,5.881964 0.840804,7.097289 C 14.428146,28.011957 16,27.999925 16,27.999925 c 0,0 1.571854,0.01204 1.823415,-0.269992 0.274596,-1.215325 0.474307,-4.860281 0.840803,-7.097289 0.109601,-1.719012 0.214971,-2.835851 0.389606,-3.866028 0.150761,-0.889331 0.434591,-1.779458 1.488239,-2.788937 1.660738,-1.553539 4.413005,-2.491698 5.431569,-5.0177934 0.585796,-1.5159182 1.073591,-3.066026 1.022717,-4.8109921 L 26,2.9999998 V 4.1460213 L 21.504619,7.0394935 16,6.9605065 10.495381,7.0394935 6,4.1460213 Z"/>
 <path d="M 10.178608,9.903637 A 2.2239115,2.2239115 0 0 0 10,10.776089 2.2239115,2.2239115 0 0 0 12.223911,13 2.2239115,2.2239115 0 0 0 14,12.109913 Z" style="opacity:0.2"/>
 <path style="fill:#eb6b00" d="M 10.178608,8.903637 A 2.2239115,2.2239115 0 0 0 10,9.776089 2.2239115,2.2239115 0 0 0 12.223911,12 2.2239115,2.2239115 0 0 0 14,11.109913 Z"/>
 <path style="opacity:0.4" d="m 18.1,18 c -0.729019,0.278391 -1.351113,0.720858 -2.1,0.66534 v 0.01429 c -0.748887,0.05552 -1.370981,-0.386948 -2.1,-0.66534 l 0.717774,7.257661 c 0.05469,0.542956 0.06698,0.615506 0.54414,0.66534 0.311811,0.04979 0.551199,0.0687 0.838086,0.06108 v -0.01429 c 0.286887,0.0076 0.526275,-0.01128 0.838086,-0.06108 0.47716,-0.04983 0.48945,-0.121085 0.54414,-0.664041 z"/>
 <path d="m 15,24.322718 c -0.303864,0.238001 -0.269335,0.551372 -0.486133,0.899248 l 0.103907,1.049989 c 0.05469,0.542956 0.06698,0.615506 0.54414,0.66534 0.101118,0.01615 0.187564,0.02398 0.277539,0.03379 H 16 16.441601 c 0.125284,-0.01024 0.252039,-0.02502 0.396485,-0.04809 0.47716,-0.04983 0.48945,-0.121085 0.54414,-0.664041 l 0.10254,-1.038294 C 17.268138,24.873397 17.303424,24.560375 17,24.322718 V 26 h -1 -1 z" style="opacity:0.2"/>
 <path style="fill:#ffffff" d="m 15,23.322718 c -0.303864,0.238001 -0.269335,0.551372 -0.486133,0.899248 l 0.103907,1.049989 c 0.05469,0.542956 0.06698,0.615506 0.54414,0.66534 0.101118,0.01615 0.187564,0.02398 0.277539,0.03379 H 16 16.441601 c 0.125284,-0.01024 0.252039,-0.02502 0.396485,-0.04809 0.47716,-0.04983 0.48945,-0.121085 0.54414,-0.664041 l 0.10254,-1.038294 C 17.268138,23.873397 17.303424,23.560375 17,23.322718 V 25 h -1 -1 z"/>
 <path d="m 18.1,19 c -0.729019,0.278391 -1.351113,0.720858 -2.1,0.66534 v 0.01429 C 15.252109,19.73507 14.6305,19.294046 13.902734,19.01559 13.983944,19.950611 14.2157,21.061349 15,21.675649 V 20 h 1 1 v 1.675649 C 17.78859,21.057992 18.023326,19.938187 18.1,19 Z" style="opacity:0.2"/>
 <path style="fill:#ffffff" d="m 18.1,18 c -0.729019,0.278391 -1.351113,0.720858 -2.1,0.66534 v 0.01429 C 15.252109,18.73507 14.6305,18.294046 13.902734,18.01559 13.983944,18.950611 14.2157,20.061349 15,20.675649 V 19 h 1 1 v 1.675649 C 17.78859,20.057992 18.023326,18.938187 18.1,18 Z"/>
 <path style="opacity:0.2" d="M 21.821392,9.903637 A 2.2239115,2.2239115 0 0 1 22,10.776089 2.2239115,2.2239115 0 0 1 19.776089,13 2.2239115,2.2239115 0 0 1 18,12.109913 Z"/>
 <path d="M 21.821392,8.903637 A 2.2239115,2.2239115 0 0 1 22,9.776089 2.2239115,2.2239115 0 0 1 19.776089,12 2.2239115,2.2239115 0 0 1 18,11.109913 Z" style="fill:#eb6b00"/>
 <path style="opacity:0.1;fill:#ffffff" d="M 6 3 L 5.0039062 4.1484375 C 4.9944208 4.4737925 5.0217635 4.7867614 5.046875 5.0996094 L 6 4 L 6 3 z M 26 3 L 26 4 L 26.953125 5.0996094 C 26.978236 4.7867614 27.005579 4.4737925 26.996094 4.1484375 L 26 3 z M 6 4.1464844 L 6 5.1464844 L 10.496094 8.0390625 L 16 7.9609375 L 21.503906 8.0390625 L 26 5.1464844 L 26 4.1464844 L 21.503906 7.0390625 L 16 6.9609375 L 10.496094 7.0390625 L 6 4.1464844 z"/>
 <path style="opacity:0.1;fill:#ffffff" d="M 10.177734,8.9042969 A 2.2239115,2.2239115 0 0 0 10,9.775391 a 2.2239115,2.2239115 0 0 0 0.05859,0.498047 2.2239115,2.2239115 0 0 1 0.11914,-0.369141 L 13.3125,11.712891 A 2.2239115,2.2239115 0 0 0 14,11.109375 Z"/>
 <path style="opacity:0.1;fill:#ffffff" d="M 21.822266,8.9042969 18,11.109375 a 2.2239115,2.2239115 0 0 0 0.6875,0.603516 l 3.134766,-1.808594 a 2.2239115,2.2239115 0 0 1 0.11914,0.369141 A 2.2239115,2.2239115 0 0 0 22,9.775391 2.2239115,2.2239115 0 0 0 21.822266,8.9042969 Z"/>
</svg>
